X:1
T:Gentle Savior, Day and Night
T:French Flemish Tune
T:Gentle Savior, Day and Night
T:Public Domain
T:Public Domain
C:French Flemish Tune
Z:Public Domain
%%score ( 1 2 ) ( 3 4 )
L:1/8
M:6/8
K:C
V:1 treble 
V:2 treble 
V:3 bass 
V:4 bass 
V:1
 [EG]2 [EA] [DG]2 [A,F] | [CE]2 [CF] [DG]3 | [EG]2 [Ec] [^Fc]2 [Gd] | [Ge]2 [Fd] [Ec]2 z | %4
w: 1.~Gen- tle Sav- ior,|day and night,|Ride three princ- es|great in might,|
w: 2.~Gas- par, Mel- chior,|Bál- tha- zár,|Those three princ- es|from a- far,|
w: 3.~Gen- tle Sav- ior|in the cold,|In the dark with|gifts of gold,|
w: 4.~En- ter princ- es,|from the night!|Here, with- in, is|warmth and light,|
w: 5.~Jo- seph, sweep the|sta- ble clean,|Strew the straw, though|all is mean.|
 [Gd]2 [Ge] [Gf]2 [Ge] | [Gd]2 [Gc] [Gd]2 z | [EG]2 [EA] [^FA]2 G | [Gc]2 [GB] [^FA]2 G | %8
w: O- ver mount- ain,|o- ver plain,|Thee a- seek- ing,|a- seek- ing, O-|
w: Gold and myrrh, and|in- cense bear|For an offer- ing,|an offer- ing, To|
w: Those three princ- es|at the door|Stand a- knock- ing,|a- knock- ing, Thee|
w: Je- sus smiles, His|hands out- spreads|For the off- erings,|the off- erings, Praise|
w: Here the tem- ple,|here the throne,|Here the al- tar,|the al- tar, Of|
 [Gd]2 [Ge] [Gf]2 [Ge] | [Gd]2 [Gc] [Gd]2 z | G2 [FA] (AB)[Gc] | [Ad]2 [Ge] [Ec]3 |] %12
w: mount- ain, o- ver|plain, Thee a-|seek- ing, gent- * le||
w: sweet and gen- tle|Child, To the|sweet and gen- * tle||
w: wor- ship, gen- tle|Child, Thee to|wor- ship, gen- * tle||
w: Him, the gen- tle|Child, Praise to|Him, the gen- * tle||
w: King, this gen- tle|Child, Of our|King, this gen- * tle||
V:2
 x6 | x6 | x6 | x6 | x6 | x6 | x5 G | x5 G | x6 | x6 | G2 F2 x2 | x6 |] %12
w: ||||||Thee|ver|||Child. *||
w: ||||||for|the|||Child. *||
w: ||||||stand|to|||Child. *||
w: ||||||for|to|||Child. *||
w: ||||||here|our|||Child. *||
V:3
 [C,C]2 [A,,C] [B,,G,]2 [D,D] | (C,B,,)[A,,A,] [G,,B,]3 | [E,B,]2 A, [A,C]2 [G,B,] | %3
 (E,F,)[G,B,] [C,C]2 z | [G,B,]2 [G,C] [G,D]2 [G,C] | [G,B,]2 [G,A,] [G,,G,B,]2 z | %6
 [E,B,]2 [C,C] [A,,C]2 [B,,D] | [C,E]2 [G,,D] [D,C]2 [G,,B,] | [G,B,]2 [G,C] [G,D]2 [G,C] | %9
 [G,B,]2 [G,A,] [G,,G,B,]2 z | (CB,)[F,A,] [D,D]2 [E,C] | [F,C]2 [G,B,] [C,C]3 |] %12
V:4
 x6 | G,2 x4 | x2 A, x3 | C2 x4 | G,,3- G,,3- | G,,3- x3 | x6 | x6 | G,,3- G,,3- | G,,3- x3 | %10
 E,2 x4 | x6 |] %12

